X:43
T:Liverpool Hornpipe. JBs.043
T:Sweepâ€™s Hornpipe,aka. JBs.043
S:Jas.Blackshaw MS, 1837, N.Shropshire
Z:Tony Weatherall 2006
M:4/4
L:1/8
Q:1/2=90
A:North Shropshire
N:Not the Liverpool Hp. as we know it, Jim!
R:.Hornpipe
K:C
Gâ€*â€A|c2ec A2fd|BcdB c2ef|f2df e2ce|defd cBAG|
c2ec defd|efge fgab|câ€™2 g2 afdBâ€*â€|c2ccc2:|
|:ef|gfgfcâ€™2ef|gfgeâ€*â€ c2e2|fgag fedc|BcdB G3G|
c2ec defd|efge fgab|câ€™2â€³*â€g2 afdB|c2c2c2:|

